X: 27
T: Colln McKays Reel
%R: reel
B: "Scots Reel & Country Dances for the Year 1769", R.Bremner, ed. p.112 #1
F: http://digital.nls.uk/special-collections-of-printed-music/pageturner.cfm?id=104993891
Z: 2016 John Chambers <jc:trillian.mit.edu>
M: C|
L: 1/8
K: C
% - - - - - - - - - - - - - - - - - - - - - - - - - - - - -
V: 1
e |\
cCCE G3(_B | A)FEC DF_B,D | (C/D/E/F/ G)E G2cG | caTgf ecc :| e | (c/d/e/f/ g)c acgc | ecge fdde |
(c/d/e/f/ g)c acgc | ecgc Gcce | (c/d/e/f/ g)c acgc | fdec (B/A/B/c/ d)e | cGEC FAG_B | AaTgf ecc |]
% - - - - - - - - - - - - - - - - - - - - - - - - - - - - -
V: 2 clef=bass middle=d
z | c2c2 c2c2 | c2c2 B2B2 | c2c2 c2e2 | f2g2 c2c :| z | c'2c'2 c'2c'2 | c2c2 d2d2 |
c2c2 c'2c'2 | g2g2 c2c2 | c2c2 c2c2 | d2c2 G2G2 | c2c2 a2e2 | f2g2 c2c |]
% - - - - - - - - - - Dance description - - - - - - - - - -
%%begintext align
%% Hands across .|
%% back again :|
%% gallop down one Cu: up again & cast off .|.
%% left at Top.
%%endtext
%%sep 2 2 400


